src/images/svg/markets/multipliers.svg

<svg width="32" height="32" viewBox="0 0 32 32" fill="none" xmlns="http://www.w3.org/2000/svg">
<path fill-rule="evenodd" clip-rule="evenodd" d="M26 0C29.3137 0 32 2.68627 32 6V26C32 29.3137 29.3137 32 26 32H6C2.68627 32 0 29.3137 0 26V6C0 2.68627 2.68627 0 6 0H26Z" fill="#33658A"/>
<path d="M7.29289 7.29289C7.68342 6.90237 8.31658 6.90237 8.70711 7.29289L16 14.585L23.2929 7.29289C23.6834 6.90237 24.3166 6.90237 24.7071 7.29289C25.0676 7.65338 25.0953 8.22061 24.7903 8.6129L24.7071 8.70711L17.415 16L24.7071 23.2929L24.7903 23.3871C25.0953 23.7794 25.0676 24.3466 24.7071 24.7071C24.3166 25.0976 23.6834 25.0976 23.2929 24.7071L16 17.415L8.70711 24.7071C8.31658 25.0976 7.68342 25.0976 7.29289 24.7071C6.93241 24.3466 6.90468 23.7794 7.2097 23.3871L7.29289 23.2929L14.585 16L7.29289 8.70711L7.2097 8.6129C6.90468 8.22061 6.93241 7.65338 7.29289 7.29289Z" fill="white"/>
</svg>

<svg width="32" height="32" fill="none" xmlns="http://www.w3.org/2000/svg"><path fill-rule="evenodd" clip-rule="evenodd" d="M26 0a6 6 0 016 6v20a6 6 0 01-6 6H6a6 6 0 01-6-6V6a6 6 0 016-6h20z" fill="#33658A"/><path d="M7.293 7.293a1 1 0 011.414 0L16 14.585l7.293-7.292a1 1 0 011.497 1.32l-.083.094L17.415 16l7.292 7.293.083.094a1 1 0 01-1.497 1.32L16 17.415l-7.293 7.292a1 1 0 01-1.497-1.32l.083-.094L14.585 16 7.293 8.707l-.083-.094a1 1 0 01.083-1.32z" fill="#fff"/></svg>
